markets/FIL.svg

<svg width="42" height="42" viewBox="0 0 42 42" fill="none" xmlns="http://www.w3.org/2000/svg">
<path fill-rule="evenodd" clip-rule="evenodd" d="M21 42.0009C9.45 42.0009 0 32.5509 0 20.8959C0.105 9.34587 9.45 -0.104133 21.105 0.000866625C32.655 0.105867 42 9.45087 42 21.2109C41.895 32.6559 32.55 42.0009 21 42.0009Z" fill="#0090FF"/>
<path fill-rule="evenodd" clip-rule="evenodd" d="M22.995 18.4809L22.365 21.8408L28.35 22.6809L27.93 24.2559L22.05 23.4158C21.63 24.7808 21.42 26.2509 20.895 27.5109C20.37 28.9809 19.845 30.4508 19.215 31.8158C18.375 33.6008 16.905 34.8608 14.91 35.1758C13.755 35.3858 12.495 35.2809 11.55 34.5459C11.235 34.3359 10.92 33.9158 10.92 33.6008C10.92 33.1808 11.13 32.6558 11.445 32.4458C11.655 32.3408 12.18 32.4458 12.495 32.5508C12.81 32.8658 13.125 33.2858 13.335 33.7058C13.965 34.5458 14.805 34.6509 15.645 34.0209C16.59 33.1809 17.115 32.0258 17.43 30.8708C18.06 28.3508 18.69 25.9358 19.215 23.4158V22.9959L13.65 22.1559L13.86 20.5809L19.635 21.4209L20.37 18.1658L14.385 17.2209L14.595 15.5409L20.79 16.3809C21 15.7509 21.105 15.2259 21.315 14.7009C21.84 12.8109 22.365 10.9209 23.625 9.24085C24.885 7.56085 26.355 6.51085 28.56 6.61585C29.505 6.61585 30.45 6.93085 31.08 7.66585C31.185 7.77085 31.395 7.98085 31.395 8.19085C31.395 8.61085 31.395 9.13585 31.08 9.45085C30.66 9.76585 30.135 9.66085 29.715 9.24085C29.4 8.92585 29.19 8.61085 28.875 8.29585C28.245 7.45585 27.3 7.35085 26.565 8.08585C26.04 8.61085 25.515 9.34585 25.2 10.0809C24.465 12.2859 23.94 14.5959 23.205 16.9059L28.98 17.7459L28.56 19.3209L22.995 18.4809" fill="white"/>
</svg>

<svg xmlns="http://www.w3.org/2000/svg" width="42" height="42" fill="none"><path fill="#0090FF" fill-rule="evenodd" d="M21 42C9.45 42 0 32.55 0 20.897.105 9.346 9.45-.104 21.105 0 32.655.106 42 9.45 42 21.21 41.895 32.656 32.55 42 21 42Z" clip-rule="evenodd"/><path fill="#fff" fill-rule="evenodd" d="m22.995 18.48-.63 3.36 5.985.84-.42 1.576-5.88-.84c-.42 1.365-.63 2.835-1.155 4.095-.525 1.47-1.05 2.94-1.68 4.305-.84 1.785-2.31 3.045-4.305 3.36-1.155.21-2.415.105-3.36-.63-.315-.21-.63-.63-.63-.945 0-.42.21-.945.525-1.155.21-.105.735 0 1.05.105.315.315.63.735.84 1.155.63.84 1.47.945 2.31.315.945-.84 1.47-1.995 1.785-3.15.63-2.52 1.26-4.935 1.785-7.455v-.42l-5.565-.84.21-1.575 5.775.84.735-3.255-5.985-.945.21-1.68 6.195.84c.21-.63.315-1.155.525-1.68.525-1.89 1.05-3.78 2.31-5.46 1.26-1.68 2.73-2.73 4.935-2.625.945 0 1.89.315 2.52 1.05.105.105.315.315.315.525 0 .42 0 .945-.315 1.26-.42.315-.945.21-1.365-.21-.315-.315-.525-.63-.84-.945-.63-.84-1.575-.945-2.31-.21A6.725 6.725 0 0 0 25.2 10.08c-.735 2.205-1.26 4.515-1.995 6.825l5.775.84-.42 1.575-5.565-.84" clip-rule="evenodd"/></svg>
